src/assets/water-need.svg

<svg width="288" height="82" viewBox="0 0 288 82" fill="none" xmlns="http://www.w3.org/2000/svg" xmlns:xlink="http://www.w3.org/1999/xlink">
<g filter="url(#filter0_d_10_440)">
<rect x="41" y="18" width="70" height="46" fill="#D2D6D8"/>
<rect x="41" y="18" width="70" height="46" fill="url(#pattern0_10_440)" fill-opacity="0.2"/>
<rect x="42" y="19" width="68" height="44" stroke="black" stroke-width="2"/>
<path d="M60.232 46V44.684H62.71V38.832H60.736V37.824C61.1093 37.768 61.436 37.7073 61.716 37.642C61.996 37.5767 62.248 37.4973 62.472 37.404C62.7053 37.3107 62.9293 37.208 63.144 37.096H64.32V44.684H66.504V46H60.232ZM71.5945 46.168C71.2025 46.168 70.8712 46.0327 70.6005 45.762C70.3392 45.4913 70.2085 45.1553 70.2085 44.754C70.2085 44.3433 70.3392 44.0073 70.6005 43.746C70.8712 43.4753 71.2025 43.34 71.5945 43.34C71.9959 43.34 72.3272 43.4753 72.5885 43.746C72.8499 44.0073 72.9805 44.3433 72.9805 44.754C72.9805 45.1553 72.8499 45.4913 72.5885 45.762C72.3272 46.0327 71.9959 46.168 71.5945 46.168ZM79.9891 46.168C79.3171 46.168 78.7337 45.986 78.2391 45.622C77.7444 45.258 77.3617 44.7307 77.0911 44.04C76.8204 43.3493 76.6851 42.5047 76.6851 41.506C76.6851 40.0033 76.9837 38.8647 77.5811 38.09C78.1784 37.3153 78.9811 36.928 79.9891 36.928C81.0064 36.928 81.8091 37.3153 82.3971 38.09C82.9944 38.8647 83.2931 40.0033 83.2931 41.506C83.2931 42.5047 83.1577 43.3493 82.8871 44.04C82.6257 44.7307 82.2477 45.258 81.7531 45.622C81.2584 45.986 80.6704 46.168 79.9891 46.168ZM79.9891 44.908C80.3437 44.908 80.6611 44.796 80.9411 44.572C81.2211 44.3387 81.4404 43.9747 81.5991 43.48C81.7577 42.976 81.8371 42.318 81.8371 41.506C81.8371 40.694 81.7577 40.0453 81.5991 39.56C81.4404 39.0747 81.2211 38.7247 80.9411 38.51C80.6611 38.2953 80.3437 38.188 79.9891 38.188C79.6344 38.188 79.3171 38.2953 79.0371 38.51C78.7571 38.7247 78.5377 39.0747 78.3791 39.56C78.2204 40.0453 78.1411 40.694 78.1411 41.506C78.1411 42.318 78.2204 42.976 78.3791 43.48C78.5377 43.9747 78.7571 44.3387 79.0371 44.572C79.3171 44.796 79.6344 44.908 79.9891 44.908ZM79.9891 42.444C79.7277 42.444 79.4991 42.3553 79.3031 42.178C79.1164 42.0007 79.0231 41.758 79.0231 41.45C79.0231 41.142 79.1164 40.8993 79.3031 40.722C79.4991 40.5447 79.7277 40.456 79.9891 40.456C80.2597 40.456 80.4884 40.5447 80.6751 40.722C80.8617 40.8993 80.9551 41.142 80.9551 41.45C80.9551 41.758 80.8617 42.0007 80.6751 42.178C80.4884 42.3553 80.2597 42.444 79.9891 42.444ZM88.3836 46.168C87.7116 46.168 87.1283 45.986 86.6336 45.622C86.1389 45.258 85.7563 44.7307 85.4856 44.04C85.2149 43.3493 85.0796 42.5047 85.0796 41.506C85.0796 40.0033 85.3783 38.8647 85.9756 38.09C86.5729 37.3153 87.3756 36.928 88.3836 36.928C89.4009 36.928 90.2036 37.3153 90.7916 38.09C91.3889 38.8647 91.6876 40.0033 91.6876 41.506C91.6876 42.5047 91.5523 43.3493 91.2816 44.04C91.0203 44.7307 90.6423 45.258 90.1476 45.622C89.6529 45.986 89.0649 46.168 88.3836 46.168ZM88.3836 44.908C88.7383 44.908 89.0556 44.796 89.3356 44.572C89.6156 44.3387 89.8349 43.9747 89.9936 43.48C90.1523 42.976 90.2316 42.318 90.2316 41.506C90.2316 40.694 90.1523 40.0453 89.9936 39.56C89.8349 39.0747 89.6156 38.7247 89.3356 38.51C89.0556 38.2953 88.7383 38.188 88.3836 38.188C88.0289 38.188 87.7116 38.2953 87.4316 38.51C87.1516 38.7247 86.9323 39.0747 86.7736 39.56C86.6149 40.0453 86.5356 40.694 86.5356 41.506C86.5356 42.318 86.6149 42.976 86.7736 43.48C86.9323 43.9747 87.1516 44.3387 87.4316 44.572C87.7116 44.796 88.0289 44.908 88.3836 44.908ZM88.3836 42.444C88.1223 42.444 87.8936 42.3553 87.6976 42.178C87.5109 42.0007 87.4176 41.758 87.4176 41.45C87.4176 41.142 87.5109 40.8993 87.6976 40.722C87.8936 40.5447 88.1223 40.456 88.3836 40.456C88.6543 40.456 88.8829 40.5447 89.0696 40.722C89.2563 40.8993 89.3496 41.142 89.3496 41.45C89.3496 41.758 89.2563 42.0007 89.0696 42.178C88.8829 42.3553 88.6543 42.444 88.3836 42.444Z" fill="black"/>
</g>
<g filter="url(#filter1_d_10_440)">
<rect x="179" y="16" width="70" height="46" fill="#D2D6D8"/>
<rect x="179" y="16" width="70" height="46" fill="url(#pattern2_10_440)" fill-opacity="0.2"/>
<rect x="180" y="17" width="68" height="44" stroke="black" stroke-width="2"/>
<path d="M198.232 44V42.684H200.71V36.832H198.736V35.824C199.109 35.768 199.436 35.7073 199.716 35.642C199.996 35.5767 200.248 35.4973 200.472 35.404C200.705 35.3107 200.929 35.208 201.144 35.096H202.32V42.684H204.504V44H198.232ZM209.595 44.168C209.203 44.168 208.871 44.0327 208.601 43.762C208.339 43.4913 208.209 43.1553 208.209 42.754C208.209 42.3433 208.339 42.0073 208.601 41.746C208.871 41.4753 209.203 41.34 209.595 41.34C209.996 41.34 210.327 41.4753 210.589 41.746C210.85 42.0073 210.981 42.3433 210.981 42.754C210.981 43.1553 210.85 43.4913 210.589 43.762C210.327 44.0327 209.996 44.168 209.595 44.168ZM217.989 44.168C217.317 44.168 216.734 43.986 216.239 43.622C215.744 43.258 215.362 42.7307 215.091 42.04C214.82 41.3493 214.685 40.5047 214.685 39.506C214.685 38.0033 214.984 36.8647 215.581 36.09C216.178 35.3153 216.981 34.928 217.989 34.928C219.006 34.928 219.809 35.3153 220.397 36.09C220.994 36.8647 221.293 38.0033 221.293 39.506C221.293 40.5047 221.158 41.3493 220.887 42.04C220.626 42.7307 220.248 43.258 219.753 43.622C219.258 43.986 218.67 44.168 217.989 44.168ZM217.989 42.908C218.344 42.908 218.661 42.796 218.941 42.572C219.221 42.3387 219.44 41.9747 219.599 41.48C219.758 40.976 219.837 40.318 219.837 39.506C219.837 38.694 219.758 38.0453 219.599 37.56C219.44 37.0747 219.221 36.7247 218.941 36.51C218.661 36.2953 218.344 36.188 217.989 36.188C217.634 36.188 217.317 36.2953 217.037 36.51C216.757 36.7247 216.538 37.0747 216.379 37.56C216.22 38.0453 216.141 38.694 216.141 39.506C216.141 40.318 216.22 40.976 216.379 41.48C216.538 41.9747 216.757 42.3387 217.037 42.572C217.317 42.796 217.634 42.908 217.989 42.908ZM217.989 40.444C217.728 40.444 217.499 40.3553 217.303 40.178C217.116 40.0007 217.023 39.758 217.023 39.45C217.023 39.142 217.116 38.8993 217.303 38.722C217.499 38.5447 217.728 38.456 217.989 38.456C218.26 38.456 218.488 38.5447 218.675 38.722C218.862 38.8993 218.955 39.142 218.955 39.45C218.955 39.758 218.862 40.0007 218.675 40.178C218.488 40.3553 218.26 40.444 217.989 40.444ZM226.384 44.168C225.712 44.168 225.128 43.986 224.634 43.622C224.139 43.258 223.756 42.7307 223.486 42.04C223.215 41.3493 223.08 40.5047 223.08 39.506C223.08 38.0033 223.378 36.8647 223.976 36.09C224.573 35.3153 225.376 34.928 226.384 34.928C227.401 34.928 228.204 35.3153 228.792 36.09C229.389 36.8647 229.688 38.0033 229.688 39.506C229.688 40.5047 229.552 41.3493 229.282 42.04C229.02 42.7307 228.642 43.258 228.148 43.622C227.653 43.986 227.065 44.168 226.384 44.168ZM226.384 42.908C226.738 42.908 227.056 42.796 227.336 42.572C227.616 42.3387 227.835 41.9747 227.994 41.48C228.152 40.976 228.232 40.318 228.232 39.506C228.232 38.694 228.152 38.0453 227.994 37.56C227.835 37.0747 227.616 36.7247 227.336 36.51C227.056 36.2953 226.738 36.188 226.384 36.188C226.029 36.188 225.712 36.2953 225.432 36.51C225.152 36.7247 224.932 37.0747 224.774 37.56C224.615 38.0453 224.536 38.694 224.536 39.506C224.536 40.318 224.615 40.976 224.774 41.48C224.932 41.9747 225.152 42.3387 225.432 42.572C225.712 42.796 226.029 42.908 226.384 42.908ZM226.384 40.444C226.122 40.444 225.894 40.3553 225.698 40.178C225.511 40.0007 225.418 39.758 225.418 39.45C225.418 39.142 225.511 38.8993 225.698 38.722C225.894 38.5447 226.122 38.456 226.384 38.456C226.654 38.456 226.883 38.5447 227.07 38.722C227.256 38.8993 227.35 39.142 227.35 39.45C227.35 39.758 227.256 40.0007 227.07 40.178C226.883 40.3553 226.654 40.444 226.384 40.444Z" fill="black"/>
</g>
<defs>
<filter id="filter0_d_10_440" x="37" y="18" width="74" height="50" filterUnits="userSpaceOnUse" color-interpolation-filters="sRGB">
<feFlood flood-opacity="0" result="BackgroundImageFix"/>
<feColorMatrix in="SourceAlpha" type="matrix" values="0 0 0 0 0 0 0 0 0 0 0 0 0 0 0 0 0 0 127 0" result="hardAlpha"/>
<feOffset dx="-4" dy="4"/>
<feComposite in2="hardAlpha" operator="out"/>
<feColorMatrix type="matrix" values="0 0 0 0 0 0 0 0 0 0 0 0 0 0 0 0 0 0 1 0"/>
<feBlend mode="normal" in2="BackgroundImageFix" result="effect1_dropShadow_10_440"/>
<feBlend mode="normal" in="SourceGraphic" in2="effect1_dropShadow_10_440" result="shape"/>
</filter>
<filter id="filter1_d_10_440" x="173" y="16" width="76" height="52" filterUnits="userSpaceOnUse" color-interpolation-filters="sRGB">
<feFlood flood-opacity="0" result="BackgroundImageFix"/>
<feColorMatrix in="SourceAlpha" type="matrix" values="0 0 0 0 0 0 0 0 0 0 0 0 0 0 0 0 0 0 127 0" result="hardAlpha"/>
<feOffset dx="-6" dy="6"/>
<feComposite in2="hardAlpha" operator="out"/>
<feColorMatrix type="matrix" values="0 0 0 0 0 0 0 0 0 0 0 0 0 0 0 0 0 0 1 0"/>
<feBlend mode="normal" in2="BackgroundImageFix" result="effect1_dropShadow_10_440"/>
<feBlend mode="normal" in="SourceGraphic" in2="effect1_dropShadow_10_440" result="shape"/>
</filter>
<pattern id="pattern0_10_440" patternUnits="userSpaceOnUse" viewBox="-164 -192 125 125" width="178.57142857142858%" height="271.73913043478262%" patternContentUnits="objectBoundingBox">
<rect width="125" height="125" transform="translate(-164 -192)" fill="url(#pattern1_10_440)"/>
</pattern><pattern id="pattern2_10_440" patternUnits="userSpaceOnUse" viewBox="-164 -192 125 125" width="178.57142857142858%" height="271.73913043478262%" patternContentUnits="objectBoundingBox">
<rect width="125" height="125" transform="translate(-164 -192)" fill="url(#pattern3_10_440)"/>
</pattern><pattern id="pattern1_10_440" patternContentUnits="objectBoundingBox" width="0.064" height="0.064">
<use xlink:href="#image0_10_440" transform="scale(0.008)"/>
</pattern>
<pattern id="pattern3_10_440" patternContentUnits="objectBoundingBox" width="0.064" height="0.064">
<use xlink:href="#image0_10_440" transform="scale(0.008)"/>
</pattern>
<image id="image0_10_440" width="8" height="8" preserveAspectRatio="none" xlink:href="data:image/png;base64,iVBORw0KGgoAAAANSUhEUgAAAAgAAAAICAYAAADED76LAAAAAXNSR0IArs4c6QAAABdJREFUGBljYMADpk+f/h+n9DCSBPoRAGVNFiE1BkVsAAAAAElFTkSuQmCC"/>
</defs>
</svg>

<svg xmlns="http://www.w3.org/2000/svg" width="288" height="82" fill="none" viewBox="0 0 288 82">
  <g filter="url(#a)">
    <path fill="#D2D6D8" d="M41 18h70v46H41z"/>
    <path stroke="#000" stroke-width="2" d="M42 19h68v44H42z"/>
    <path fill="#000" d="M60.232 46v-1.316h2.478v-5.852h-1.974v-1.008c.373-.056.7-.117.98-.182a4.81 4.81 0 0 0 .756-.238c.233-.093.457-.196.672-.308h1.176v7.588h2.184V46h-6.272Zm11.362.168c-.391 0-.723-.135-.993-.406a1.395 1.395 0 0 1-.392-1.008c0-.41.13-.747.391-1.008.271-.27.603-.406.995-.406.4 0 .732.135.993.406.262.261.393.597.393 1.008 0 .401-.131.737-.392 1.008-.262.27-.593.406-.995.406Zm8.395 0c-.672 0-1.255-.182-1.75-.546-.495-.364-.877-.891-1.148-1.582-.27-.69-.406-1.535-.406-2.534 0-1.503.299-2.641.896-3.416.597-.775 1.4-1.162 2.408-1.162 1.017 0 1.82.387 2.408 1.162.597.775.896 1.913.896 3.416 0 .999-.135 1.843-.406 2.534-.261.69-.64 1.218-1.134 1.582-.495.364-1.083.546-1.764.546Zm0-1.26c.355 0 .672-.112.952-.336.28-.233.5-.597.658-1.092.159-.504.238-1.162.238-1.974s-.08-1.46-.238-1.946c-.159-.485-.378-.835-.658-1.05a1.524 1.524 0 0 0-.952-.322c-.355 0-.672.107-.952.322-.28.215-.5.565-.658 1.05-.159.485-.238 1.134-.238 1.946s.08 1.47.238 1.974c.159.495.378.859.658 1.092.28.224.597.336.952.336Zm0-2.464a.99.99 0 0 1-.686-.266c-.187-.177-.28-.42-.28-.728s.093-.55.28-.728a.99.99 0 0 1 .686-.266c.27 0 .5.089.686.266.187.177.28.42.28.728s-.093.55-.28.728a.959.959 0 0 1-.686.266Zm8.395 3.724c-.672 0-1.256-.182-1.75-.546-.495-.364-.878-.891-1.148-1.582-.271-.69-.406-1.535-.406-2.534 0-1.503.298-2.641.896-3.416.597-.775 1.4-1.162 2.408-1.162 1.017 0 1.82.387 2.408 1.162.597.775.896 1.913.896 3.416 0 .999-.136 1.843-.406 2.534-.262.69-.64 1.218-1.134 1.582-.495.364-1.083.546-1.764.546Zm0-1.26c.354 0 .672-.112.952-.336.28-.233.499-.597.658-1.092.158-.504.238-1.162.238-1.974s-.08-1.46-.238-1.946c-.16-.485-.378-.835-.658-1.05a1.524 1.524 0 0 0-.952-.322c-.355 0-.672.107-.952.322-.28.215-.5.565-.658 1.05-.16.485-.238 1.134-.238 1.946s.079 1.47.238 1.974c.158.495.378.859.658 1.092.28.224.597.336.952.336Zm0-2.464a.99.99 0 0 1-.686-.266c-.187-.177-.28-.42-.28-.728s.093-.55.28-.728a.99.99 0 0 1 .686-.266c.27 0 .499.089.686.266.186.177.28.42.28.728s-.094.55-.28.728a.959.959 0 0 1-.686.266Z"/>
  </g>
  <g filter="url(#b)">
    <path fill="#D2D6D8" d="M179 16h70v46h-70z"/>
    <path stroke="#000" stroke-width="2" d="M180 17h68v44h-68z"/>
    <path fill="#000" d="M198.232 44v-1.316h2.478v-5.852h-1.974v-1.008c.373-.056.7-.117.98-.182a4.81 4.81 0 0 0 .756-.238c.233-.093.457-.196.672-.308h1.176v7.588h2.184V44h-6.272Zm11.363.168a1.35 1.35 0 0 1-.994-.406 1.392 1.392 0 0 1-.392-1.008c0-.41.13-.747.392-1.008.27-.27.602-.406.994-.406.401 0 .732.135.994.406.261.261.392.597.392 1.008 0 .401-.131.737-.392 1.008-.262.27-.593.406-.994.406Zm8.394 0c-.672 0-1.255-.182-1.75-.546-.495-.364-.877-.891-1.148-1.582-.271-.69-.406-1.535-.406-2.534 0-1.503.299-2.641.896-3.416.597-.775 1.4-1.162 2.408-1.162 1.017 0 1.82.387 2.408 1.162.597.775.896 1.913.896 3.416 0 .999-.135 1.843-.406 2.534-.261.69-.639 1.218-1.134 1.582-.495.364-1.083.546-1.764.546Zm0-1.26c.355 0 .672-.112.952-.336.28-.233.499-.597.658-1.092.159-.504.238-1.162.238-1.974s-.079-1.46-.238-1.946c-.159-.485-.378-.835-.658-1.05a1.523 1.523 0 0 0-.952-.322c-.355 0-.672.107-.952.322-.28.215-.499.565-.658 1.05-.159.485-.238 1.134-.238 1.946s.079 1.47.238 1.974c.159.495.378.859.658 1.092.28.224.597.336.952.336Zm0-2.464a.991.991 0 0 1-.686-.266c-.187-.177-.28-.42-.28-.728s.093-.55.28-.728a.991.991 0 0 1 .686-.266.96.96 0 0 1 .686.266c.187.177.28.42.28.728s-.093.55-.28.728a.959.959 0 0 1-.686.266Zm8.395 3.724c-.672 0-1.256-.182-1.75-.546-.495-.364-.878-.891-1.148-1.582-.271-.69-.406-1.535-.406-2.534 0-1.503.298-2.641.896-3.416.597-.775 1.4-1.162 2.408-1.162 1.017 0 1.82.387 2.408 1.162.597.775.896 1.913.896 3.416 0 .999-.136 1.843-.406 2.534-.262.69-.64 1.218-1.134 1.582-.495.364-1.083.546-1.764.546Zm0-1.26c.354 0 .672-.112.952-.336.28-.233.499-.597.658-1.092.158-.504.238-1.162.238-1.974s-.08-1.46-.238-1.946c-.159-.485-.378-.835-.658-1.05a1.525 1.525 0 0 0-.952-.322c-.355 0-.672.107-.952.322-.28.215-.5.565-.658 1.05-.159.485-.238 1.134-.238 1.946s.079 1.47.238 1.974c.158.495.378.859.658 1.092.28.224.597.336.952.336Zm0-2.464a.99.99 0 0 1-.686-.266c-.187-.177-.28-.42-.28-.728s.093-.55.28-.728a.99.99 0 0 1 .686-.266.96.96 0 0 1 .686.266c.186.177.28.42.28.728s-.094.55-.28.728a.96.96 0 0 1-.686.266Z"/>
  </g>
  <defs>
    <filter id="a" width="74" height="50" x="37" y="18" color-interpolation-filters="sRGB" filterUnits="userSpaceOnUse">
      <feFlood flood-opacity="0" result="BackgroundImageFix"/>
      <feColorMatrix in="SourceAlpha" result="hardAlpha" values="0 0 0 0 0 0 0 0 0 0 0 0 0 0 0 0 0 0 127 0"/>
      <feOffset dx="-4" dy="4"/>
      <feComposite in2="hardAlpha" operator="out"/>
      <feColorMatrix values="0 0 0 0 0 0 0 0 0 0 0 0 0 0 0 0 0 0 1 0"/>
      <feBlend in2="BackgroundImageFix" result="effect1_dropShadow_10_440"/>
      <feBlend in="SourceGraphic" in2="effect1_dropShadow_10_440" result="shape"/>
    </filter>
    <filter id="b" width="76" height="52" x="173" y="16" color-interpolation-filters="sRGB" filterUnits="userSpaceOnUse">
      <feFlood flood-opacity="0" result="BackgroundImageFix"/>
      <feColorMatrix in="SourceAlpha" result="hardAlpha" values="0 0 0 0 0 0 0 0 0 0 0 0 0 0 0 0 0 0 127 0"/>
      <feOffset dx="-6" dy="6"/>
      <feComposite in2="hardAlpha" operator="out"/>
      <feColorMatrix values="0 0 0 0 0 0 0 0 0 0 0 0 0 0 0 0 0 0 1 0"/>
      <feBlend in2="BackgroundImageFix" result="effect1_dropShadow_10_440"/>
      <feBlend in="SourceGraphic" in2="effect1_dropShadow_10_440" result="shape"/>
    </filter>
  </defs>
</svg>
